X:1
T:Margaret
T:Margaret
T:Timothy Richard Matthews, 1876
T:Public Domain Courtesy of the Cyber Hymnal™
C:Timothy Richard Matthews, 1876
Z:Public Domain
Z:Courtesy of the Cyber Hymnal™
%%score ( 1 2 ) ( 3 4 )
L:1/8
Q:1/4=115
M:4/4
K:D
V:1 treble 
V:2 treble 
V:3 bass 
V:4 bass 
V:1
 D[DE] | [DF]2 [DF][DF] [B,G]2 [CF][CE] | D2 [B,E]2 [CF]2 [DF][D^G] | [CA]2 [EA][EA] [DF]2 DD | %4
 [CE]6 [CE][CE] | [DF]2 FF [F^G]2 [^EG][EG] | [CA]2 [DA][DA] [DB]2 [DB][DB] | %7
 [Cc]2 [EA][EA] B3 z c | [CA]6 [CA]2 | [DA]2 [DF][CG] [DA]2 [Fd]2 | [Gd]4 [Gc]2 [EB][EB] | %11
 [FA]2 D[DE] [DF]2 [CE][CE] | D6 |] %13
V:2
 D x | x8 | D2 x6 | x8 | x8 | x8 | x8 | x4 E2 D2 x | x8 | x8 | x8 | x2 D x5 | D6 |] %13
V:3
 [D,F,][D,G,] | [D,A,]2 [B,,B,][B,,B,] [E,G,]2 [A,,A,][A,,G,] | %2
 [B,,F,]2 [G,,B,]2 [F,,^A,]2 [B,,B,][B,,B,] | [A,,E,]2 [C,A,][C,A,] [D,A,]2 [F,A,][F,A,] | %4
 A,6 [A,,A,][A,,A,] | [D,A,]2 [D,A,][D,A,] [C,B,]2 [C,B,][C,B,] | %6
 [F,A,]2 [=F,A,][F,A,] [E,A,]2 [E,^G,][E,G,] | [A,,A,]2 [C,A,][C,A,] [E,A,]2 [E,^G,]2 x | %8
 [A,,A,]6 [A,,G,]2 | [D,F,]2 [D,A,][E,A,] [F,A,]2 [D,A,]2 | [E,A,]4 [E,A,]2 [G,C][G,C] | %11
 [F,D]2 [B,,^G,][B,,G,] [A,,A,]2 [A,,A,][A,,=G,] | [D,F,]6 |] %13
V:4
 x2 | x8 | x8 | x8 | A,6 x2 | x8 | x8 | x9 | x8 | x8 | x8 | x8 | x6 |] %13

